X: 1
T:The Sailor's Hornpipe
M:C|
L:1/8
Q:80
C:
S:Hornpipe
K:HP
|: a3/4g/4|
{ag}aA{GAG}A{gef}e3/4d/4|
{gcd}c3/4e/4a3/4g/4a3/4g/4{a}f3/4e/4|  !
{gfg}fB{G}B{g}B3/4A/4|
{g}G3/4{d}B/4{gef}e{A}e{g}f3/4g/4|
a3/4g/4{a}f3/4e/4{g}f3/4e/4{g}d3/4c/4|  !
{g}d3/4c/4{g}B3/4A/4{g}G3/4A/4{g}B3/4c/4|
{gde}d3/4c/4{g}d3/4e/4{g}f3/4e/4{g}f3/4g/4|
{ag}aA{GAG}A:| |:  !
{gef}e3/4d/4|
{gcd}c3/4e/4a3/4e/4{gcd}c3/4e/4a3/4e/4|
{gfg}fd{gdG}d{g}f3/4e/4|  !
{Gdc}d3/4f/4a3/4f/4{Gdc}d3/4f/4a3/4f/4|
{gf}g{a}e{A}e{g}f3/4g/4|
a3/4g/4{a}f3/4e/4{g}f3/4e/4{g}d3/4c/4|  !
{g}d3/4c/4{g}B3/4A/4{g}G3/4A/4{g}B3/4c/4|
{gde}d3/4c/4{g}d3/4e/4{g}f3/4e/4{g}f3/4g/4|
{ag}aA{GAG}A:|  !
